X:110
T:RVW2/2/110 Shipcrook And Black Dog
C:Mr. Stacey, Hollycombe, Sussex, 28 May 1904
L:1/8
Q:1/4=110
M:3/4
I:linebreak $
K:G
"^(Editorial suggestion  " D2 | G2 A2 !courtesy!=F2 | G4 (Bc) | c2 c2 (dc) | A4 (BA) | 
w: |Spread the green|bran- ches _|while I am _|young. So _|
G2 G2 (AG) |$ =FE C2 D2 | GG E2 (=FE) | D4 (Bc) | (Bc) d2 (cB) | (AB) c2 BA |$ G2 G2 B2 | 
w: well I do _|like my love so|cheer- ful- ly she _|sung. Was _|e- * ver a _|man _ in such a|hap- py a|
(D2 E2) =F2 | (ED) C2 (EG) | (=FE) D2 C2 | G2 c2 B2 | G4 |] 
w: state _ as|I _ with my _|Flo- * ro, my|Flo- ro so|great.|



